X: 9
T: Julia Delaney's
R: reel
M: 4/4
L: 1/8
K: Ddor
|:dcAG F2DF |E2CE FEFA |dcAG F2EF| Addc defe|
dcAG F2DF |E2CE FEFA |dcAG F2EF|1 Addc d4:|2 Addc d2de||
|:fede fagf |ecgc acgc |fede fagf |edcB Adde |
fede fagf |ecgc acgc |fedf edcB |Addc d2de:|

